_site/images/icons/line-chart.svg

<svg height="24" viewBox="0 0 24 24" width="24" xmlns="http://www.w3.org/2000/svg"><path d="m6.6 16.8c.99411255 0 1.8-.8058875 1.8-1.8.00585808-.059857.00585808-.120143 0-.18l3.348-3.348h.276.276l1.932 1.932v.096c0 .9941125.8058875 1.8 1.8 1.8s1.8-.8058875 1.8-1.8v-.096l4.368-4.404c.9941125 0 1.8-.80588745 1.8-1.8s-.8058875-1.8-1.8-1.8-1.8.80588745-1.8 1.8c-.0058581.05985701-.0058581.12014299 0 .18l-4.332 4.332h-.192l-2.076-2.112c0-.99411255-.8058875-1.8-1.8-1.8s-1.8.80588745-1.8 1.8l-3.6 3.6c-.99411255 0-1.8.8058875-1.8 1.8s.80588745 1.8 1.8 1.8zm16.2 4.8h-20.4v-20.4c0-.6627417-.5372583-1.2-1.2-1.2s-1.2.5372583-1.2 1.2v21.6c0 .6627417.5372583 1.2 1.2 1.2h21.6c.6627417 0 1.2-.5372583 1.2-1.2s-.5372583-1.2-1.2-1.2z" fill="#0b7a76"/></svg>

<?xml version="1.0" encoding="UTF-8"?>
<svg width="24px" height="24px" viewBox="0 0 24 24" version="1.1" xmlns="http://www.w3.org/2000/svg" xmlns:xlink="http://www.w3.org/1999/xlink">
    <!-- Generator: Sketch 52.6 (67491) - http://www.bohemiancoding.com/sketch -->
    <title>Group 8</title>
    <desc>Created with Sketch.</desc>
    <g id="Landing-page" stroke="none" stroke-width="1" fill="none" fill-rule="evenodd">
        <g id="1.1--Home" transform="translate(-163.000000, -2454.000000)" fill="#0B7A76" fill-rule="nonzero">
            <g id="Group-4" transform="translate(163.000000, 1943.000000)">
                <g id="Group-30" transform="translate(0.000000, 162.000000)">
                    <g id="Group-13" transform="translate(0.000000, 343.000000)">
                        <g id="Group-8" transform="translate(0.000000, 6.000000)">
                            <g id="play">
                                <g id="money-stack">
                                    <path d="M6.6,16.8 C7.59411255,16.8 8.4,15.9941125 8.4,15 C8.40585808,14.940143 8.40585808,14.879857 8.4,14.82 L11.748,11.472 L12.024,11.472 L12.3,11.472 L14.232,13.404 C14.232,13.404 14.232,13.464 14.232,13.5 C14.232,14.4941125 15.0378875,15.3 16.032,15.3 C17.0261125,15.3 17.832,14.4941125 17.832,13.5 L17.832,13.404 L22.2,9 C23.1941125,9 24,8.19411255 24,7.2 C24,6.20588745 23.1941125,5.4 22.2,5.4 C21.2058875,5.4 20.4,6.20588745 20.4,7.2 C20.3941419,7.25985701 20.3941419,7.32014299 20.4,7.38 L16.068,11.712 L15.876,11.712 L13.8,9.6 C13.8,8.60588745 12.9941125,7.8 12,7.8 C11.0058875,7.8 10.2,8.60588745 10.2,9.6 L6.6,13.2 C5.60588745,13.2 4.8,14.0058875 4.8,15 C4.8,15.9941125 5.60588745,16.8 6.6,16.8 Z M22.8,21.6 L2.4,21.6 L2.4,1.2 C2.4,0.5372583 1.8627417,0 1.2,0 C0.5372583,0 0,0.5372583 0,1.2 L0,22.8 C0,23.4627417 0.5372583,24 1.2,24 L22.8,24 C23.4627417,24 24,23.4627417 24,22.8 C24,22.1372583 23.4627417,21.6 22.8,21.6 Z" id="Shape"></path>
                                </g>
                            </g>
                        </g>
                    </g>
                </g>
            </g>
        </g>
    </g>
</svg>
